src/lib/packages/icons/src/assets/filled/id-card.svg

<svg width="24" height="24" viewBox="0 0 24 24" fill="none" xmlns="http://www.w3.org/2000/svg">
<path d="M18 4.5H6C4 4.5 3 5.5 3 7.5V16.5C3 18.5 4 19.5 6 19.5H18C20 19.5 21 18.5 21 16.5V7.5C21 5.5 20 4.5 18 4.5ZM9.00598 7.5C10.192 7.5 11.156 8.46402 11.156 9.65002C11.156 10.836 10.191 11.8 9.00598 11.8C7.82098 11.8 6.85699 10.836 6.85699 9.65002C6.85699 8.46402 7.81998 7.5 9.00598 7.5ZM12.5 16C12.5 16.276 12.276 16.5 12 16.5H6C5.724 16.5 5.5 16.276 5.5 16V15.697C5.5 14.357 6.48097 13 8.35797 13H9.64099C11.518 13 12.499 14.356 12.499 15.697V16H12.5ZM17.95 14.75H14.95C14.536 14.75 14.2 14.414 14.2 14C14.2 13.586 14.536 13.25 14.95 13.25H17.95C18.364 13.25 18.7 13.586 18.7 14C18.7 14.414 18.364 14.75 17.95 14.75ZM18 10.688H14C13.586 10.688 13.25 10.352 13.25 9.93799C13.25 9.52399 13.586 9.18799 14 9.18799H18C18.414 9.18799 18.75 9.52399 18.75 9.93799C18.75 10.352 18.414 10.688 18 10.688Z" fill="currentColor"/>
</svg>

<svg xmlns="http://www.w3.org/2000/svg" width="24" height="24" fill="none"><path fill="currentColor" d="M18 4.5H6c-2 0-3 1-3 3v9c0 2 1 3 3 3h12c2 0 3-1 3-3v-9c0-2-1-3-3-3Zm-8.994 3c1.186 0 2.15.964 2.15 2.15s-.965 2.15-2.15 2.15a2.151 2.151 0 0 1 0-4.3ZM12.5 16a.5.5 0 0 1-.5.5H6a.5.5 0 0 1-.5-.5v-.303c0-1.34.981-2.697 2.858-2.697h1.283c1.877 0 2.858 1.356 2.858 2.697V16h.001Zm5.45-1.25h-3a.75.75 0 0 1 0-1.5h3a.75.75 0 0 1 0 1.5Zm.05-4.062h-4a.75.75 0 0 1 0-1.5h4a.75.75 0 0 1 0 1.5Z"/></svg>
